X: 8
T: Wonder, The
C: James Hill
Z: Erik-Fiddler
S: https://thesession.org/tunes/337#setting53539
R: hornpipe
M: 4/4
L: 1/8
K: Gmaj
|:(3DEF|G>dB>G F>cA>F|(3GFG B>G D2 G>F|E>GA>B c>BA>G|F>d (3d/^c/d/d e>d=c>A|
G>dB>G F>cA>F|(3GFG B>G D2 G>F |E>ed>c B>AG>F|A2G2 [G,2G2]:|
|:A>G|F>Ad>^c d>BA>G|F>Ad>^c d>fe>d|^c>de>f (3gfe ^c>e|d>^cd>e (3ded (3=cdc|
B>cB>A ^G>B e2|A>BA>=G F>A d2|(3efg f>e (3ded (3cBA|(3GBd (3gdB G2:|

%-------------------- TUNE SEPARATOR --------------------%

